public/images/hashed/5d8f4358ed1d91e1d0fd05ff0a0dbf0a.svg

<?xml version="1.0" encoding="UTF-8"?>
<svg width="80px" height="80px" viewBox="0 0 80 80" version="1.1" xmlns="http://www.w3.org/2000/svg" xmlns:xlink="http://www.w3.org/1999/xlink">
    <!-- Generator: Sketch 64 (93537) - https://sketch.com -->
    <title>Icon-Architecture/64/Arch_AWS-Transfer-Family_64</title>
    <desc>Created with Sketch.</desc>
    <defs>
        <linearGradient x1="0%" y1="100%" x2="100%" y2="0%" id="linearGradient-1">
            <stop stop-color="#055F4E" offset="0%"></stop>
            <stop stop-color="#56C0A7" offset="100%"></stop>
        </linearGradient>
    </defs>
    <g id="Icon-Architecture/64/Arch_AWS-Transfer-Family_64" stroke="none" stroke-width="1" fill="none" fill-rule="evenodd">
        <g id="Icon-Architecture-BG/64/Migration-Transfer" fill="url(#linearGradient-1)">
            <rect id="Rectangle" x="0" y="0" width="80" height="80"></rect>
        </g>
        <path d="M62.515,26.38975 C62.355,26.75175 61.995,26.98575 61.6,26.98575 L57,26.98575 L57,34.98575 L60,34.98575 C60.553,34.98575 61,35.43275 61,35.98575 L61,64.98575 C61,65.53775 60.553,65.98575 60,65.98575 L20,65.98575 C18.346,65.98575 17,64.63975 17,62.98575 L17,27.98575 C17,27.43275 17.448,26.98575 18,26.98575 L30.556,26.98575 C30.839,26.98575 31.11,27.10575 31.299,27.31575 L33.703,29.98575 L39,29.98575 L39,31.98575 L33.258,31.98575 C32.975,31.98575 32.704,31.86575 32.515,31.65475 L30.111,28.98575 L19,28.98575 L19,62.98575 C19,63.53675 19.449,63.98575 20,63.98575 C20.552,63.98575 21,63.53675 21,62.98575 L21,35.98575 C21,35.43275 21.448,34.98575 22,34.98575 L39,34.98575 L39,36.98575 L23,36.98575 L23,62.98575 C23,63.33775 22.928,63.67075 22.816,63.98575 L59,63.98575 L59,36.98575 L52,36.98575 L52,34.98575 L55,34.98575 L55,25.98575 C55,25.43275 55.448,24.98575 56,24.98575 L59.338,24.98575 L52.5,17.47175 L45.662,24.98575 L49,24.98575 C49.553,24.98575 50,25.43275 50,25.98575 L50,31.98575 L50,35.98575 L50,39.98575 L54,39.98575 C54.39,39.98575 54.744,40.21175 54.908,40.56475 C55.072,40.91775 55.015,41.33375 54.764,41.63075 L46.311,51.63075 C46.121,51.85475 45.843,51.98475 45.55,51.98575 L45.547,51.98575 C45.255,51.98575 44.977,51.85775 44.787,51.63575 L36.241,41.63575 C35.987,41.33875 35.929,40.92175 36.092,40.56675 C36.255,40.21275 36.61,39.98575 37,39.98575 L41,39.98575 L41,31.98575 L43,31.98575 L43,40.98575 C43,41.53775 42.553,41.98575 42,41.98575 L39.17,41.98575 L45.543,49.44175 L51.846,41.98575 L49,41.98575 C48.448,41.98575 48,41.53775 48,40.98575 L48,35.98575 L48,31.98575 L48,26.98575 L43.401,26.98575 C43.005,26.98575 42.646,26.75175 42.486,26.38975 C42.327,26.02775 42.395,25.60475 42.661,25.31275 L51.761,15.31275 C52.14,14.89575 52.861,14.89575 53.24,15.31275 L62.339,25.31275 C62.606,25.60475 62.674,26.02775 62.515,26.38975" id="AWS-Transfer-Family_Icon-64_Squid" fill="#FFFFFF"></path>
    </g>
</svg>

<svg xmlns="http://www.w3.org/2000/svg" width="80" height="80"><defs><linearGradient id="a" x1="0%" x2="100%" y1="100%" y2="0%"><stop offset="0%" stop-color="#055F4E"/><stop offset="100%" stop-color="#56C0A7"/></linearGradient></defs><g fill="none" fill-rule="evenodd"><path fill="url(#a)" d="M0 0h80v80H0z"/><path fill="#FFF" d="M62.515 26.39c-.16.362-.52.596-.915.596H57v8h3a1 1 0 0 1 1 1v29a1 1 0 0 1-1 1H20c-1.654 0-3-1.346-3-3v-35a1 1 0 0 1 1-1h12.556a1 1 0 0 1 .743.33l2.404 2.67H39v2h-5.742a.998.998 0 0 1-.743-.331l-2.404-2.67H19v34a1.001 1.001 0 0 0 2 0v-27a1 1 0 0 1 1-1h17v2H23v26c0 .353-.072.686-.184 1H59v-27h-7v-2h3v-9a1 1 0 0 1 1-1h3.338L52.5 17.473l-6.838 7.514H49a1 1 0 0 1 1 1v14h4a1 1 0 0 1 .764 1.645l-8.453 10c-.19.224-.468.354-.761.355h-.003c-.292 0-.57-.128-.76-.35l-8.546-10a1.001 1.001 0 0 1 .759-1.65h4v-8h2v9a1 1 0 0 1-1 1h-2.83l6.373 7.456 6.303-7.456H49a1 1 0 0 1-1-1v-14h-4.599a1 1 0 0 1-.74-1.673l9.1-10c.379-.417 1.1-.417 1.479 0l9.099 10a1 1 0 0 1 .176 1.077"/></g></svg>
